build/img/icon-facebook.svg

<svg width="27" height="27" viewBox="0 0 27 27" fill="none" xmlns="http://www.w3.org/2000/svg">
<path fill-rule="evenodd" clip-rule="evenodd" d="M27 13.5C27 6.04462 20.9562 0 13.5 0C6.04379 0 0 6.04462 0 13.5C0 20.9562 6.04369 27 13.5 27C20.9562 27 27 20.9563 27 13.5ZM16.8835 9.29395H15.1437C14.6754 9.29395 14.3464 9.69053 14.3464 10.185V10.9604H16.8312L16.4288 13.4772H14.3455V20.2238H11.8025V13.4772H10.115V10.9604H11.8025V9.677H11.8075C11.8523 8.21392 12.3602 6.82092 14.8383 6.73315V6.72388H16.8835V9.29395Z" fill="#999999"/>
</svg>

<svg width="27" height="27" fill="none" xmlns="http://www.w3.org/2000/svg"><path fill-rule="evenodd" clip-rule="evenodd" d="M27 13.5C27 6.045 20.956 0 13.5 0S0 6.045 0 13.5C0 20.956 6.044 27 13.5 27S27 20.956 27 13.5zM16.884 9.294h-1.74c-.469 0-.798.397-.798.891v.775h2.485l-.402 2.517h-2.083v6.747h-2.543v-6.747h-1.688V10.96h1.688V9.677h.004c.045-1.463.553-2.856 3.031-2.944v-.01h2.046v2.571z" fill="#999"/></svg>
